src/render/svg/desc1.svg

<svg xmlns="http://www.w3.org/2000/svg" width="512" height="512" class="icon" viewBox="0 0 1024 1024">
    <path d="M932.096 768 753.088 950.4c-.128.128-.384.192-.512.32-2.88 2.88-9.6 5.184-13.376 6.784-3.392 1.344-.64 1.856-4.096 2.112-.768 0-1.344.384-1.984.384-.512 0-.896-.256-1.344-.256-3.904-.192-5.76-.896-9.344-2.24-3.264-1.344-6.016-3.52-8.64-5.76-.64-.512-1.472-.768-2.112-1.344L519.168 768c-12.864-12.8-6.976-33.6 5.952-46.4 12.736-12.864 33.6-12.864 46.4 0L704 847.872l.128-685.952c0-18.752 12.736-33.984 30.848-33.92 18.112-.064 27.776 15.168 27.776 33.984v685.888L891.52 721.6c12.864-12.864 33.6-12.864 46.528 0 6.4 6.4 3.776 14.72 3.776 23.168S938.496 761.6 932.096 768M370.624 449.152l30.656 64.192c3.456 7.68 8.32 14.272 14.72 19.904 6.4 5.504 16.192 8.128 29.44 7.744 6.4 0 12.352-.896 17.92-2.624 5.504-1.728 10.112-4.288 13.76-7.744 3.648-3.52 5.888-7.744 6.72-12.992.896-5.12 0-11.392-2.56-18.688L348.16 151.616c-2.112-6.144-6.72-11.584-13.76-16.448-6.976-4.736-16.512-7.168-28.416-7.168-12.032 0-21.44 2.432-28.544 7.168-7.04 4.8-11.648 10.304-13.76 16.448L131.84 497.728c-5.952 15.744-4.992 26.88 2.88 33.472q11.904 9.792 31.68 9.792c13.248 0 23.232-2.816 30.144-8.384 6.784-5.568 12.096-12.928 16-22.08l28.096-61.376zM256.64 384l49.344-128 49.28 128zm-67.776 256c-8.576 0-16.192 2.304-23.04 6.848-6.784 4.608-10.176 12.224-10.176 22.784 0 10.944 3.648 18.624 10.88 23.04s14.656 6.656 22.4 6.656h167.68l-216.32 224.256c-4.672 5.824-7.04 11.136-7.04 15.872 0 5.12 3.008 9.856 9.024 14.144 5.824 4.288 12.864 6.4 20.928 6.4h269.504c7.616 0 15.104-2.24 22.4-6.656 7.232-4.48 10.88-12.096 10.88-23.04 0-10.56-3.456-18.176-10.24-22.784s-14.528-6.848-22.976-6.848h-183.04l216.96-224.256c6.016-7.488 9.024-13.888 9.024-19.008 0-4.032-2.816-8-8.384-11.776-5.632-3.776-11.776-5.632-18.624-5.632z"/>
</svg>

<?xml version="1.0" standalone="no"?><!DOCTYPE svg PUBLIC "-//W3C//DTD SVG 1.1//EN" "http://www.w3.org/Graphics/SVG/1.1/DTD/svg11.dtd"><svg t="1710769093294" class="icon" viewBox="0 0 1024 1024" version="1.1" xmlns="http://www.w3.org/2000/svg"  xmlns:xlink="http://www.w3.org/1999/xlink" width="512" height="512"><path d="M932.096 768l-179.008 182.4c-0.128 0.128-0.384 0.192-0.512 0.32-2.88 2.88-9.6 5.184-13.376 6.784-3.392 1.344-0.64 1.856-4.096 2.112-0.768 0-1.344 0.384-1.984 0.384-0.512 0-0.896-0.256-1.344-0.256-3.904-0.192-5.76-0.896-9.344-2.24-3.264-1.344-6.016-3.52-8.64-5.76-0.64-0.512-1.472-0.768-2.112-1.344L519.168 768c-12.864-12.8-6.976-33.6 5.952-46.4 12.736-12.864 33.6-12.864 46.4 0L704 847.872 704.128 161.92c0-18.752 12.736-33.984 30.848-33.92 18.112-0.064 27.776 15.168 27.776 33.984l0 685.888 128.768-126.272c12.864-12.864 33.6-12.864 46.528 0 6.4 6.4 3.776 14.72 3.776 23.168S938.496 761.6 932.096 768zM370.624 449.152 401.28 513.344C404.736 521.024 409.6 527.616 416 533.248c6.4 5.504 16.192 8.128 29.44 7.744 6.4 0 12.352-0.896 17.92-2.624 5.504-1.728 10.112-4.288 13.76-7.744C480.768 527.104 483.008 522.88 483.84 517.632c0.896-5.12 0-11.392-2.56-18.688L348.16 151.616C346.048 145.472 341.44 140.032 334.4 135.168 327.424 130.432 317.888 128 305.984 128 293.952 128 284.544 130.432 277.44 135.168c-7.04 4.8-11.648 10.304-13.76 16.448L131.84 497.728C125.888 513.472 126.848 524.608 134.72 531.2 142.656 537.728 153.216 540.992 166.4 540.992c13.248 0 23.232-2.816 30.144-8.384C203.328 527.04 208.64 519.68 212.544 510.528L240.64 449.152 370.624 449.152zM256.64 384l49.344-128 49.28 128L256.64 384zM188.864 640c-8.576 0-16.192 2.304-23.04 6.848-6.784 4.608-10.176 12.224-10.176 22.784 0 10.944 3.648 18.624 10.88 23.04s14.656 6.656 22.4 6.656l167.68 0-216.32 224.256c-4.672 5.824-7.04 11.136-7.04 15.872 0 5.12 3.008 9.856 9.024 14.144C148.096 957.888 155.136 960 163.2 960l269.504 0c7.616 0 15.104-2.24 22.4-6.656 7.232-4.48 10.88-12.096 10.88-23.04 0-10.56-3.456-18.176-10.24-22.784s-14.528-6.848-22.976-6.848l-183.04 0 216.96-224.256c6.016-7.488 9.024-13.888 9.024-19.008 0-4.032-2.816-8-8.384-11.776C461.696 641.856 455.552 640 448.704 640L188.864 640z"  ></path></svg>
